X:1
T:Title
%%score { ( 1 3 ) | 2 }
L:1/8
Q:1/4=100
M:4/4
K:D
V:1 treble nm="Grand Piano"
V:3 treble 
V:2 bass 
V:1
 [DFA]2 [A,DA]2 [DFA]2 [DA]2 | [DFA][A,EG][A,DF][A,EG] [DGB]2 [DFA]2 | %2
w: W.~H.~Doane * * *||
 [CEG]2 [A,EG]2 [A,CG]2 [A,EG]2 | [A,FA][A,EG][A,DF][A,CE] [A,DF]4 | [DFA]2 [DA]2 [DFA]2 [DA]2 | %5
w: |||
 [DFA][A,EG][A,DF][A,EG] [DGB]2 [DFA]2 | [DE^G][CEA][GB][Ac] [Bd]2 [EG]2 | [EA]6 z2 | %8
w: |||
 [Fd]4 [FA]2 [Fd]2 | [Ac]2 [GB]4 z2 | AG[GB][FA] [EG]4 | [EG][CE][CA][EG] [DF]4 | [Fd]4 z4 | %13
w: |||||
 [Ac]2 [GB]4 z2 | [DA]2 [A,FA]2 [Fd]2 [Ec]2 | [Fd]6 z2 |] %16
w: |||
V:2
 D,2 F,2 A,2 F,2 | D,D,D,D, D,2 D,2 | A,,2 C,2 E,2 C,2 | A,,A,,A,,A,, D,4 | D,2 F,2 A,2 F,2 | %5
 D,D,D,D, D,2 D,2 | E,E,[E,E][E,E] [E,E]2 [E,D]2 | [A,C]6 z2 | [D,D]2 [D,D]2 [D,D]2 [D,D]2 | %9
 [G,D]G,G,G, G,2 z2 | [A,F][A,CE][K:bass][A,,A,][A,,A,] [A,,A,]4 | %11
 [A,,A,][A,,A,][A,,A,][A,,A,] [D,A,]4 | [D,A,]2 D,2 D,2 F,2 | G,G,G,G, G,2 z2 | %14
 F,2 D,2 A,2 [A,,A,]2 | [D,A,]6 z2 |] %16
V:3
 x8 | x8 | x8 | x8 | x8 | x8 | x8 | x8 | x8 | z DDD D2 z2 | x8 | x8 | z2 A,2 [DFA]2 [DAd]2 | %13
 DDDD D2 z2 | x8 | x8 |] %16

